;FLAVOR:Marlin
;TIME:22575
;Filament used: 19.4497m
;Layer height: 0.2
;MINX:64.019
;MINY:36.54
;MINZ:0.2
;MAXX:235.981
;MAXY:263.462
;MAXZ:3
;Generated with Cura_SteamEngine 4.4.1
M140 S60
M105
M190 S60
M104 S200
M105
M109 S200
M82 ;absolute extrusion mode
M201 X500.00 Y500.00 Z100.00 E5000.00 ;Setup machine max acceleration
M203 X500.00 Y500.00 Z10.00 E50.00 ;Setup machine max feedrate
M204 P500.00 R1000.00 T500.00 ;Setup Print/Retract/Travel acceleration
M205 X8.00 Y8.00 Z0.40 E5.00 ;Setup Jerk
M220 S100 ;Reset Feedrate
M221 S100 ;Reset Flowrate

G28 ;Home
M420 S1 Z2 ;Enable ABL using saved Mesh and Fade Height

G92 E0 ;Reset Extruder
G1 Z2.0 F3000 ;Move Z Axis up
G1 X10.1 Y20 Z0.28 F5000.0 ;Move to start position
G1 X10.1 Y200.0 Z0.28 F1500.0 E15 ;Draw the first line
G1 X10.4 Y200.0 Z0.28 F5000.0 ;Move to side a little
G1 X10.4 Y20 Z0.28 F1500.0 E30 ;Draw the second line
G92 E0 ;Reset Extruder
G1 Z2.0 F3000 ;Move Z Axis up

G92 E0
G92 E0
G1 F1500 E-6.5
;LAYER_COUNT:15
;LAYER:0
M107
G0 F6000 X90.498 Y50.675 Z0.2
;TYPE:SKIRT
G1 F1500 E0
G1 F1200 X91.003 Y49.885 E0.03119
G1 X91.574 Y49.141 E0.06238
G1 X92.206 Y48.448 E0.09357
G1 X92.895 Y47.811 E0.12478
G1 X93.635 Y47.235 E0.15597
G1 X94.422 Y46.725 E0.18716
G1 X95.25 Y46.283 E0.21838
G1 X96.28 Y45.852 E0.25552
G1 X96.907 Y45.626 E0.27769
G1 X97.093 Y45.56 E0.28425
G1 X102.209 Y43.819 E0.46399
G1 X102.351 Y43.772 E0.46897
G1 X103.249 Y43.48 E0.50037
G1 X103.49 Y43.405 E0.50877
G1 X103.8 Y43.312 E0.51953
G1 X103.924 Y43.276 E0.52383
G1 X109.254 Y41.745 E0.70827
G1 X109.402 Y41.703 E0.71339
G1 X110.335 Y41.449 E0.74555
G1 X110.587 Y41.384 E0.75421
G1 X110.834 Y41.323 E0.76267
G1 X110.946 Y41.296 E0.7665
G1 X116.394 Y40.011 E0.95267
G1 X116.544 Y39.976 E0.9578
G1 X117.462 Y39.773 E0.98907
G1 X117.692 Y39.725 E0.99688
G1 X118.024 Y39.659 E1.00814
G1 X118.166 Y39.632 E1.01295
G1 X123.608 Y38.624 E1.19703
G1 X123.751 Y38.598 E1.20186
G1 X124.672 Y38.44 E1.23294
G1 X124.967 Y38.394 E1.24287
G1 X125.301 Y38.346 E1.2541
G1 X125.384 Y38.334 E1.25688
G1 X130.864 Y37.589 E1.44083
G1 X131.024 Y37.569 E1.44619
G1 X131.999 Y37.451 E1.47886
G1 X132.253 Y37.423 E1.48735
G1 X132.499 Y37.399 E1.49558
G1 X132.612 Y37.389 E1.49935
G1 X138.246 Y36.898 E1.68745
G1 X138.404 Y36.885 E1.69272
G1 X139.271 Y36.822 E1.72163
G1 X139.536 Y36.806 E1.73046
G1 X139.825 Y36.792 E1.74009
G1 X139.933 Y36.787 E1.74368
G1 X145.591 Y36.569 E1.93201
G1 X145.743 Y36.564 E1.93706
G1 X146.591 Y36.543 E1.96528
G1 X146.863 Y36.54 E1.97433
G1 X147.197 Y36.54 E1.98543
G1 X147.304 Y36.541 E1.98899
G1 X152.876 Y36.595 E2.17433
G1 X153.026 Y36.597 E2.17932
G1 X153.968 Y36.619 E2.21066
G1 X154.266 Y36.63 E2.22057
G1 X154.543 Y36.644 E2.2298
G1 X154.623 Y36.648 E2.23246
G1 X160.205 Y36.971 E2.41843
G1 X160.357 Y36.981 E2.4235
G1 X161.291 Y37.048 E2.45464
G1 X161.586 Y37.073 E2.46449
G1 X161.92 Y37.106 E2.47565
G1 X162.002 Y37.115 E2.4784
G1 X167.527 Y37.703 E2.6632
G1 X167.689 Y37.721 E2.66862
G1 X168.595 Y37.831 E2.69897
G1 X168.852 Y37.866 E2.7076
G1 X169.182 Y37.914 E2.71869
G1 X169.293 Y37.93 E2.72242
G1 X174.766 Y38.783 E2.90665
G1 X174.91 Y38.807 E2.91151
G1 X175.854 Y38.967 E2.94335
G1 X176.141 Y39.019 E2.95305
G1 X176.466 Y39.083 E2.96407
G1 X176.554 Y39.101 E2.96706
G1 X182.018 Y40.223 E3.15258
G1 X182.166 Y40.254 E3.15761
G1 X183.035 Y40.445 E3.18721
G1 X183.324 Y40.513 E3.19708
G1 X183.602 Y40.582 E3.20661
G1 X183.684 Y40.603 E3.20942
G1 X189.086 Y41.988 E3.39491
G1 X189.236 Y42.027 E3.40006
G1 X190.179 Y42.283 E3.43256
G1 X190.401 Y42.346 E3.44024
G1 X190.673 Y42.426 E3.44967
G1 X190.814 Y42.468 E3.45456
G1 X196.159 Y44.118 E3.64061
G1 X196.293 Y44.161 E3.64529
G1 X197.182 Y44.448 E3.67636
G1 X197.461 Y44.542 E3.68616
G1 X197.668 Y44.615 E3.69346
G1 X197.755 Y44.646 E3.69653
G1 X203.102 Y46.582 E3.88567
G1 X203.261 Y46.641 E3.89131
G1 X203.888 Y46.879 E3.91361
G1 X204.75 Y47.249 E3.94481
G1 X205.577 Y47.691 E3.976
G1 X206.363 Y48.202 E4.00718
G1 X207.103 Y48.778 E4.03837
G1 X207.792 Y49.415 E4.06958
G1 X208.423 Y50.108 E4.10076
G1 X208.994 Y50.852 E4.13195
G1 X209.499 Y51.643 E4.16316
G1 X209.934 Y52.473 E4.19433
G1 X210.298 Y53.338 E4.22554
G1 X210.586 Y54.23 E4.25672
G1 X210.797 Y55.144 E4.28792
G1 X210.93 Y56.073 E4.31913
G1 X210.982 Y56.956 E4.34855
G1 X210.998 Y57.808 E4.3769
G1 X211 Y58.015 E4.38378
G1 X211 Y160.931 E7.80678
G1 X211.037 Y163.54 E7.89356
G1 X211.144 Y166.062 E7.97752
G1 X211.321 Y168.556 E8.06068
G1 X211.569 Y171.054 E8.14417
G1 X211.887 Y173.543 E8.22763
G1 X212.281 Y176.052 E8.3121
G1 X212.74 Y178.518 E8.39553
G1 X213.267 Y180.969 E8.47892
G1 X213.87 Y183.429 E8.56316
G1 X214.54 Y185.863 E8.64712
G1 X215.268 Y188.242 E8.72987
G1 X216.079 Y190.645 E8.81422
G1 X216.953 Y193.015 E8.89824
G1 X217.889 Y195.348 E8.98185
G1 X218.886 Y197.64 E9.06498
G1 X219.972 Y199.954 E9.15
G1 X221.088 Y202.171 E9.23255
G1 X222.287 Y204.393 E9.31653
G1 X223.543 Y206.569 E9.40009
G1 X224.879 Y208.741 E9.48491
G1 X226.239 Y210.817 E9.56745
G1 X227.684 Y212.892 E9.65155
G1 X229.186 Y214.925 E9.73562
G1 X230.719 Y216.883 E9.81833
G1 X232.398 Y218.903 E9.9057
G1 X233.336 Y219.998 E9.95365
G1 X233.916 Y220.735 E9.98485
G1 X234.43 Y221.519 E10.01603
G1 X234.876 Y222.344 E10.04722
G1 X235.25 Y223.204 E10.07841
G1 X235.55 Y224.093 E10.10962
G1 X235.772 Y225.004 E10.1408
G1 X235.916 Y225.931 E10.172
G1 X235.981 Y226.867 E10.20321
G1 X235.966 Y227.804 E10.23438
G1 X235.871 Y228.737 E10.26557
G1 X235.697 Y229.659 E10.29678
G1 X235.445 Y230.562 E10.32796
G1 X235.117 Y231.441 E10.35917
G1 X234.715 Y232.288 E10.39035
G1 X234.242 Y233.099 E10.42158
G1 X233.703 Y233.866 E10.45276
G1 X233.099 Y234.584 E10.48396
G1 X232.437 Y235.248 E10.51515
G1 X231.664 Y235.897 E10.54872
G1 X231.278 Y236.192 E10.56488
G1 X231.094 Y236.33 E10.57253
G1 X227.245 Y239.146 E10.73115
G1 X227.12 Y239.236 E10.73627
G1 X226.395 Y239.751 E10.76585
G1 X226.191 Y239.892 E10.7741
G1 X225.866 Y240.112 E10.78715
G1 X225.753 Y240.188 E10.79168
G1 X221.838 Y242.768 E10.94763
G1 X221.712 Y242.85 E10.95263
G1 X220.938 Y243.345 E10.98318
G1 X220.707 Y243.489 E10.99224
G1 X220.403 Y243.673 E11.00406
G1 X220.303 Y243.732 E11.00792
G1 X216.253 Y246.125 E11.16438
G1 X216.117 Y246.204 E11.16961
G1 X215.274 Y246.686 E11.20191
G1 X215.011 Y246.832 E11.21191
G1 X214.817 Y246.936 E11.21923
G1 X214.745 Y246.974 E11.22194
G1 X210.462 Y249.229 E11.38293
G1 X210.324 Y249.301 E11.38811
G1 X209.569 Y249.685 E11.41628
G1 X209.227 Y249.851 E11.42893
G1 X204.612 Y252.001 E11.59826
G1 X204.484 Y252.06 E11.60295
G1 X203.649 Y252.436 E11.63341
G1 X203.363 Y252.56 E11.64378
G1 X203.015 Y252.705 E11.65631
G1 X202.93 Y252.74 E11.65937
G1 X198.556 Y254.52 E11.81644
G1 X198.424 Y254.573 E11.82117
G1 X197.61 Y254.892 E11.85025
G1 X197.311 Y255.004 E11.86087
G1 X196.957 Y255.131 E11.87337
G1 X196.881 Y255.158 E11.87606
G1 X192.434 Y256.717 E12.03279
G1 X192.295 Y256.764 E12.03767
G1 X191.437 Y257.052 E12.06777
G1 X191.156 Y257.142 E12.07759
G1 X190.826 Y257.243 E12.08907
G1 X190.733 Y257.272 E12.09231
G1 X186.205 Y258.614 E12.24938
G1 X186.055 Y258.657 E12.25457
G1 X185.176 Y258.904 E12.28494
G1 X184.894 Y258.979 E12.29465
G1 X184.514 Y259.075 E12.30768
G1 X184.425 Y259.097 E12.31073
G1 X179.818 Y260.22 E12.46845
G1 X179.673 Y260.254 E12.4734
G1 X178.871 Y260.438 E12.50077
G1 X178.613 Y260.494 E12.50955
G1 X178.241 Y260.57 E12.52218
G1 X178.119 Y260.594 E12.52631
G1 X173.446 Y261.494 E12.68459
G1 X173.267 Y261.527 E12.69065
G1 X172.395 Y261.68 E12.72009
G1 X172.153 Y261.72 E12.72825
G1 X171.858 Y261.765 E12.73818
G1 X171.744 Y261.782 E12.74201
G1 X166.966 Y262.46 E12.90252
G1 X166.809 Y262.481 E12.90779
G1 X165.968 Y262.588 E12.93599
G1 X165.7 Y262.619 E12.94496
G1 X165.407 Y262.649 E12.95475
G1 X165.294 Y262.66 E12.95853
G1 X160.518 Y263.099 E13.11805
G1 X160.358 Y263.112 E13.12339
G1 X159.465 Y263.181 E13.15318
G1 X159.214 Y263.198 E13.16155
G1 X158.864 Y263.217 E13.17321
G1 X158.737 Y263.223 E13.17743
G1 X154.005 Y263.425 E13.33496
G1 X153.849 Y263.431 E13.34016
G1 X152.937 Y263.457 E13.3705
G1 X152.663 Y263.461 E13.37962
G1 X152.381 Y263.462 E13.389
G1 X152.271 Y263.462 E13.39265
G1 X147.479 Y263.431 E13.55204
G1 X147.329 Y263.429 E13.55703
G1 X146.435 Y263.411 E13.58677
G1 X146.153 Y263.402 E13.59615
G1 X145.825 Y263.387 E13.60708
G1 X145.717 Y263.381 E13.61067
G1 X140.95 Y263.116 E13.76947
G1 X140.788 Y263.106 E13.77487
G1 X139.908 Y263.044 E13.80421
G1 X139.66 Y263.023 E13.81249
G1 X139.349 Y262.994 E13.82288
G1 X139.221 Y262.982 E13.82715
G1 X134.478 Y262.484 E13.98577
G1 X134.314 Y262.465 E13.99126
G1 X133.424 Y262.358 E14.02108
G1 X133.195 Y262.328 E14.02876
G1 X132.849 Y262.279 E14.04038
G1 X132.706 Y262.258 E14.04519
G1 X127.996 Y261.528 E14.20371
G1 X127.843 Y261.503 E14.20887
G1 X127.011 Y261.362 E14.23694
G1 X126.737 Y261.312 E14.2462
G1 X126.328 Y261.232 E14.26006
G1 X126.226 Y261.212 E14.26352
G1 X121.642 Y260.27 E14.41917
G1 X121.482 Y260.236 E14.42461
G1 X120.577 Y260.036 E14.45544
G1 X120.352 Y259.984 E14.46312
G1 X120.06 Y259.913 E14.47311
G1 X119.915 Y259.876 E14.47809
G1 X115.292 Y258.685 E14.63687
G1 X115.148 Y258.647 E14.64183
G1 X114.255 Y258.404 E14.67261
G1 X113.99 Y258.329 E14.68177
G1 X113.756 Y258.259 E14.68989
G1 X113.648 Y258.225 E14.69366
G1 X109 Y256.782 E14.85553
G1 X108.852 Y256.735 E14.86069
G1 X108.079 Y256.483 E14.88774
G1 X107.827 Y256.398 E14.89658
G1 X107.47 Y256.272 E14.90917
G1 X107.356 Y256.231 E14.9132
G1 X102.886 Y254.598 E15.07149
G1 X102.746 Y254.546 E15.07645
G1 X101.982 Y254.255 E15.10364
G1 X101.711 Y254.147 E15.11335
G1 X101.242 Y253.954 E15.13022
G1 X101.153 Y253.917 E15.13342
G1 X96.855 Y252.104 E15.28857
G1 X96.709 Y252.042 E15.29385
G1 X95.932 Y251.701 E15.32207
G1 X95.686 Y251.589 E15.33106
G1 X95.336 Y251.425 E15.34391
G1 X95.237 Y251.378 E15.34756
G1 X90.946 Y249.315 E15.50592
G1 X90.803 Y249.245 E15.51121
G1 X90.033 Y248.861 E15.53983
G1 X89.815 Y248.749 E15.54798
G1 X89.572 Y248.621 E15.55712
G1 X89.448 Y248.555 E15.56179
G1 X85.19 Y246.242 E15.72296
G1 X85.052 Y246.165 E15.72821
G1 X84.294 Y245.739 E15.75713
G1 X84.078 Y245.615 E15.76542
G1 X83.823 Y245.464 E15.77527
G1 X83.712 Y245.397 E15.77959
G1 X79.59 Y242.89 E15.94005
G1 X79.45 Y242.804 E15.94551
G1 X78.771 Y242.377 E15.97219
G1 X78.559 Y242.24 E15.98059
G1 X78.181 Y241.99 E15.99566
G1 X78.078 Y241.921 E15.99978
G1 X74.212 Y239.301 E16.15511
G1 X74.074 Y239.206 E16.16069
G1 X73.317 Y238.676 E16.19142
G1 X73.112 Y238.529 E16.19981
G1 X72.863 Y238.346 E16.21009
G1 X72.767 Y238.275 E16.21406
G1 X68.949 Y235.405 E16.37293
G1 X68.817 Y235.303 E16.37847
G1 X68.273 Y234.881 E16.40137
G1 X67.557 Y234.276 E16.43255
G1 X66.895 Y233.611 E16.46376
G1 X66.293 Y232.892 E16.49495
G1 X65.753 Y232.125 E16.52615
G1 X65.281 Y231.314 E16.55736
G1 X64.88 Y230.467 E16.58853
G1 X64.553 Y229.588 E16.61972
G1 X64.302 Y228.684 E16.65092
G1 X64.128 Y227.763 E16.6821
G1 X64.034 Y226.829 E16.71332
G1 X64.019 Y225.892 E16.74449
G1 X64.084 Y224.956 E16.7757
G1 X64.229 Y224.029 E16.8069
G1 X64.453 Y223.119 E16.83807
G1 X64.753 Y222.23 E16.86928
G1 X65.127 Y221.37 E16.90047
G1 X65.574 Y220.545 E16.93168
G1 X66.089 Y219.762 E16.96285
G1 X66.602 Y219.103 E16.99063
G1 X67.003 Y218.627 E17.01133
G1 X67.108 Y218.505 E17.01668
G1 X68.032 Y217.44 E17.06358
G1 X69.637 Y215.48 E17.14784
G1 X71.181 Y213.484 E17.23177
G1 X72.652 Y211.465 E17.31485
G1 X74.089 Y209.37 E17.39935
G1 X75.453 Y207.259 E17.48294
G1 X76.752 Y205.114 E17.56635
G1 X77.982 Y202.949 E17.64917
G1 X79.189 Y200.68 E17.73465
G1 X80.285 Y198.467 E17.81678
G1 X81.359 Y196.136 E17.90215
G1 X82.334 Y193.853 E17.98471
G1 X83.264 Y191.493 E18.06908
G1 X84.115 Y189.135 E18.15246
G1 X84.908 Y186.731 E18.23666
G1 X85.619 Y184.354 E18.31918
G1 X86.279 Y181.894 E18.40389
G1 X86.862 Y179.444 E18.48765
G1 X87.378 Y176.973 E18.57161
G1 X87.82 Y174.498 E18.65523
G1 X88.192 Y172.021 E18.73854
G1 X88.494 Y169.527 E18.8221
G1 X88.728 Y167.004 E18.90637
G1 X88.887 Y164.526 E18.98896
G1 X88.98 Y161.949 E19.07473
G1 X89 Y160.06 E19.13756
G1 X89 Y56.889 E22.56904
G1 X89.001 Y56.729 E22.57436
G1 X89.011 Y56.04 E22.59728
G1 X89.065 Y55.104 E22.62847
G1 X89.198 Y54.176 E22.65965
G1 X89.41 Y53.262 E22.69085
G1 X89.698 Y52.37 E22.72203
G1 X90.062 Y51.505 E22.75324
G1 X90.498 Y50.675 E22.78443
G0 F6000 X90.895 Y50.788
G1 F1200 X91.399 Y50.018 E22.81503
G1 X91.968 Y49.294 E22.84566
G1 X92.598 Y48.622 E22.8763
G1 X93.283 Y48.008 E22.90689
G1 X94.02 Y47.455 E22.93754
G1 X94.801 Y46.968 E22.96815
G1 X95.622 Y46.551 E22.99878
G1 X96.416 Y46.228 E23.02729
G1 X97.043 Y46.002 E23.04946
G1 X97.222 Y45.939 E23.05577
G1 X102.338 Y44.198 E23.23551
G1 X102.475 Y44.153 E23.24031
G1 X103.373 Y43.861 E23.27171
G1 X103.605 Y43.788 E23.2798
G1 X103.915 Y43.695 E23.29057
G1 X104.035 Y43.66 E23.29473
G1 X109.365 Y42.129 E23.47917
G1 X109.507 Y42.089 E23.48408
G1 X110.44 Y41.835 E23.51624
G1 X110.683 Y41.772 E23.52459
G1 X110.93 Y41.711 E23.53305
G1 X111.038 Y41.685 E23.53674
G1 X116.486 Y40.4 E23.72292
G1 X116.63 Y40.367 E23.72783
G1 X117.548 Y40.164 E23.7591
G1 X117.77 Y40.117 E23.76665
G1 X118.102 Y40.051 E23.77791
G1 X118.238 Y40.025 E23.78251
G1 X123.68 Y39.017 E23.96659
G1 X123.819 Y38.993 E23.97129
G1 X124.74 Y38.835 E24.00237
G1 X125.024 Y38.79 E24.01193
G1 X125.358 Y38.742 E24.02315
G1 X125.438 Y38.731 E24.02584
G1 X130.918 Y37.986 E24.20978
G1 X131.072 Y37.966 E24.21495
G1 X132.047 Y37.848 E24.24761
G1 X132.292 Y37.821 E24.25581
G1 X132.538 Y37.797 E24.26403
G1 X132.647 Y37.787 E24.26767
G1 X138.281 Y37.296 E24.45577
G1 X138.433 Y37.284 E24.46084
G1 X139.3 Y37.221 E24.48975
G1 X139.555 Y37.205 E24.49825
G1 X139.844 Y37.191 E24.50787
G1 X139.949 Y37.187 E24.51137
G1 X145.607 Y36.969 E24.69969
G1 X145.753 Y36.964 E24.70455
G1 X146.601 Y36.943 E24.73277
G1 X146.863 Y36.94 E24.74148
G1 X147.3 Y36.94 E24.75601
G1 X152.872 Y36.994 E24.94135
G1 X153.016 Y36.997 E24.94614
G1 X153.958 Y37.019 E24.97748
G1 X154.246 Y37.03 E24.98707
G1 X154.523 Y37.044 E24.99629
G1 X154.6 Y37.048 E24.99885
G1 X160.182 Y37.371 E25.18482
G1 X160.328 Y37.38 E25.18969
G1 X161.262 Y37.447 E25.22083
G1 X161.546 Y37.471 E25.23031
G1 X161.88 Y37.504 E25.24148
G1 X161.96 Y37.513 E25.24415
G1 X167.485 Y38.101 E25.42895
G1 X167.641 Y38.118 E25.43417
G1 X168.547 Y38.228 E25.46453
G1 X168.795 Y38.261 E25.47285
G1 X169.125 Y38.309 E25.48394
G1 X169.231 Y38.325 E25.48751
G1 X174.704 Y39.178 E25.67174
G1 X174.843 Y39.201 E25.67642
G1 X175.787 Y39.361 E25.70827
G1 X176.064 Y39.412 E25.71764
G1 X176.389 Y39.476 E25.72865
G1 X176.473 Y39.493 E25.7315
G1 X181.937 Y40.615 E25.91703
G1 X182.08 Y40.645 E25.92189
G1 X182.949 Y40.836 E25.95148
G1 X183.227 Y40.901 E25.96098
G1 X183.505 Y40.97 E25.9705
G1 X183.585 Y40.99 E25.97325
G1 X188.987 Y42.375 E26.15873
G1 X189.131 Y42.413 E26.16368
G1 X190.074 Y42.669 E26.19618
G1 X190.288 Y42.73 E26.20358
G1 X190.56 Y42.81 E26.21301
G1 X190.696 Y42.851 E26.21774
G1 X196.041 Y44.501 E26.40379
G1 X196.171 Y44.542 E26.40832
G1 X197.06 Y44.829 E26.43939
G1 X197.328 Y44.919 E26.4488
G1 X197.535 Y44.992 E26.4561
G1 X197.619 Y45.022 E26.45907
G1 X202.966 Y46.958 E26.64821
G1 X203.119 Y47.015 E26.65364
G1 X203.746 Y47.253 E26.67594
G1 X204.591 Y47.617 E26.70654
G1 X205.402 Y48.053 E26.73717
G1 X206.173 Y48.557 E26.7678
G1 X206.896 Y49.127 E26.79843
G1 X207.567 Y49.757 E26.82904
G1 X208.181 Y50.443 E26.85966
G1 X208.733 Y51.179 E26.89026
G1 X209.22 Y51.961 E26.9209
G1 X209.636 Y52.782 E26.95151
G1 X209.98 Y53.636 E26.98213
G1 X210.248 Y54.517 E27.01276
G1 X210.439 Y55.417 E27.04336
G1 X210.551 Y56.331 E27.07399
G1 X210.582 Y56.964 E27.09507
G1 X210.598 Y57.816 E27.12341
G1 X210.6 Y58.015 E27.13003
G1 X210.6 Y160.937 E30.55323
G1 X210.637 Y163.562 E30.64055
G1 X210.744 Y166.071 E30.72407
G1 X210.922 Y168.587 E30.80796
G1 X211.172 Y171.111 E30.89232
G1 X211.493 Y173.619 E30.97642
G1 X211.88 Y176.081 E31.05931
G1 X212.349 Y178.603 E31.14463
G1 X212.881 Y181.077 E31.2288
G1 X213.481 Y183.525 E31.31263
G1 X214.148 Y185.948 E31.39622
G1 X214.893 Y188.382 E31.48088
G1 X215.711 Y190.807 E31.566
G1 X216.566 Y193.124 E31.64814
G1 X217.528 Y195.521 E31.73405
