;FLAVOR:Marlin
;TIME:692
;Filament used: 0.343355m
;Layer height: 0.2
;MINX:131.5
;MINY:122.5
;MINZ:0.2
;MAXX:168.5
;MAXY:177.5
;MAXZ:2.4
;Generated with Cura_SteamEngine 4.4.1
M140 S60
M105
M190 S60
M104 S200
M105
M109 S200
M82 ;absolute extrusion mode
M201 X500.00 Y500.00 Z100.00 E5000.00 ;Setup machine max acceleration
M203 X500.00 Y500.00 Z10.00 E50.00 ;Setup machine max feedrate
M204 P500.00 R1000.00 T500.00 ;Setup Print/Retract/Travel acceleration
M205 X8.00 Y8.00 Z0.40 E5.00 ;Setup Jerk
M220 S100 ;Reset Feedrate
M221 S100 ;Reset Flowrate

G28 ;Home
M420 S1 Z2 ;Enable ABL using saved Mesh and Fade Height

G92 E0 ;Reset Extruder
G1 Z2.0 F3000 ;Move Z Axis up
G1 X10.1 Y20 Z0.28 F5000.0 ;Move to start position
G1 X10.1 Y200.0 Z0.28 F1500.0 E15 ;Draw the first line
G1 X10.4 Y200.0 Z0.28 F5000.0 ;Move to side a little
G1 X10.4 Y20 Z0.28 F1500.0 E30 ;Draw the second line
G92 E0 ;Reset Extruder
G1 Z2.0 F3000 ;Move Z Axis up

G92 E0
G92 E0
G1 F1500 E-6.5
;LAYER_COUNT:12
;LAYER:0
M107
G0 F6000 X137.21 Y125.752 Z0.2
;TYPE:SKIRT
G1 F1500 E0
G1 F1200 X137.899 Y125.116 E0.03119
G1 X138.64 Y124.541 E0.06238
G1 X139.427 Y124.031 E0.09357
G1 X140.255 Y123.59 E0.12478
G1 X141.117 Y123.221 E0.15596
G1 X142.008 Y122.927 E0.18717
G1 X142.92 Y122.709 E0.21836
G1 X143.847 Y122.571 E0.24953
G1 X144.701 Y122.513 E0.278
G1 X145.021 Y122.504 E0.28865
G1 X145.33 Y122.5 E0.29892
G1 X154.293 Y122.5 E0.59703
G1 X154.451 Y122.501 E0.60229
G1 X155.149 Y122.511 E0.62551
G1 X156.085 Y122.565 E0.65669
G1 X157.013 Y122.697 E0.68787
G1 X157.927 Y122.909 E0.71907
G1 X158.819 Y123.198 E0.75026
G1 X159.684 Y123.561 E0.78146
G1 X160.514 Y123.997 E0.81264
G1 X161.305 Y124.502 E0.84386
G1 X162.049 Y125.073 E0.87505
G1 X162.742 Y125.705 E0.90625
G1 X163.379 Y126.393 E0.93743
G1 X163.954 Y127.134 E0.96863
G1 X164.465 Y127.92 E0.99981
G1 X164.907 Y128.748 E1.03102
G1 X165.276 Y129.61 E1.06221
G1 X165.571 Y130.5 E1.0934
G1 X165.789 Y131.412 E1.12458
G1 X165.929 Y132.34 E1.1558
G1 X165.987 Y133.201 E1.1845
G1 X165.996 Y133.521 E1.19515
G1 X166 Y133.83 E1.20543
G1 X166 Y139.237 E1.38526
G1 X166.037 Y141.845 E1.47202
G1 X166.144 Y144.366 E1.55594
G1 X166.321 Y146.861 E1.63913
G1 X166.569 Y149.361 E1.72269
G1 X166.888 Y151.854 E1.80628
G1 X167.279 Y154.347 E1.89022
G1 X167.74 Y156.825 E1.97405
G1 X168.16 Y158.772 E2.0403
G1 X168.188 Y158.909 E2.04495
G1 X168.271 Y159.319 E2.05886
G1 X168.418 Y160.246 E2.09008
G1 X168.485 Y161.167 E2.12079
G1 X168.495 Y161.495 E2.1317
G1 X168.5 Y161.83 E2.14285
G1 X168.5 Y165.764 E2.27369
G1 X168.499 Y165.9 E2.27822
G1 X168.49 Y166.627 E2.3024
G1 X168.439 Y167.564 E2.33361
G1 X168.307 Y168.492 E2.36479
G1 X168.098 Y169.406 E2.39597
G1 X167.811 Y170.299 E2.42717
G1 X167.449 Y171.165 E2.45839
G1 X167.015 Y171.996 E2.48957
G1 X166.511 Y172.787 E2.52076
G1 X165.942 Y173.532 E2.55194
G1 X165.311 Y174.227 E2.58316
G1 X164.624 Y174.865 E2.61435
G1 X163.885 Y175.442 E2.64553
G1 X163.099 Y175.954 E2.67673
G1 X162.273 Y176.397 E2.70791
G1 X161.411 Y176.769 E2.73913
G1 X160.522 Y177.065 E2.7703
G1 X159.61 Y177.285 E2.8015
G1 X158.683 Y177.426 E2.83269
G1 X157.799 Y177.487 E2.86216
G1 X157.478 Y177.496 E2.87284
G1 X157.17 Y177.5 E2.88308
G1 X143.207 Y177.5 E3.3475
G1 X143.065 Y177.499 E3.35222
G1 X142.367 Y177.49 E3.37544
G1 X141.431 Y177.438 E3.40662
G1 X140.502 Y177.306 E3.43782
G1 X139.588 Y177.096 E3.46902
G1 X138.695 Y176.809 E3.50021
G1 X137.83 Y176.446 E3.53141
G1 X136.999 Y176.012 E3.5626
G1 X136.208 Y175.508 E3.59379
G1 X135.463 Y174.938 E3.62499
G1 X134.769 Y174.307 E3.65619
G1 X134.132 Y173.62 E3.68735
G1 X133.555 Y172.88 E3.71856
G1 X133.043 Y172.094 E3.74976
G1 X132.6 Y171.267 E3.78096
G1 X132.229 Y170.406 E3.81214
G1 X131.933 Y169.516 E3.84334
G1 X131.714 Y168.604 E3.87454
G1 X131.573 Y167.677 E3.90572
G1 X131.513 Y166.788 E3.93536
G1 X131.504 Y166.455 E3.94644
G1 X131.5 Y166.158 E3.95632
G1 X131.5 Y162.207 E4.08773
G1 X131.501 Y162.049 E4.09298
G1 X131.511 Y161.352 E4.11617
G1 X131.565 Y160.416 E4.14735
G1 X131.754 Y159.207 E4.18805
G1 X131.991 Y158.098 E4.22577
G1 X132.504 Y155.543 E4.31244
G1 X132.921 Y153.102 E4.39481
G1 X133.282 Y150.565 E4.48004
G1 X133.563 Y148.084 E4.56309
G1 X133.779 Y145.539 E4.64804
G1 X133.917 Y143.115 E4.72879
G1 X134 Y139.156 E4.8605
G1 X134 Y134.174 E5.0262
G1 X134.001 Y134.009 E5.03169
G1 X134.011 Y133.344 E5.05381
G1 X134.065 Y132.407 E5.08502
G1 X134.199 Y131.479 E5.11621
G1 X134.411 Y130.565 E5.14742
G1 X134.7 Y129.673 E5.1786
G1 X135.065 Y128.809 E5.2098
G1 X135.501 Y127.979 E5.24098
G1 X136.007 Y127.189 E5.27218
G1 X136.578 Y126.445 E5.30338
G1 X137.21 Y125.752 E5.33457
G0 F6000 X137.602 Y125.927
G1 F1200 X138.288 Y125.313 E5.36519
G1 X139.024 Y124.761 E5.39579
G1 X139.806 Y124.274 E5.42643
G1 X140.627 Y123.858 E5.45704
G1 X141.481 Y123.514 E5.48767
G1 X142.361 Y123.245 E5.51827
G1 X143.262 Y123.054 E5.54891
G1 X144.176 Y122.942 E5.57953
G1 X144.712 Y122.913 E5.59739
G1 X145.032 Y122.904 E5.60803
G1 X145.33 Y122.9 E5.61795
G1 X154.293 Y122.9 E5.91606
G1 X154.445 Y122.901 E5.92111
G1 X155.143 Y122.911 E5.94433
G1 X156.062 Y122.964 E5.97495
G1 X156.973 Y123.097 E6.00557
G1 X157.869 Y123.308 E6.03619
G1 X158.743 Y123.596 E6.06679
G1 X159.59 Y123.959 E6.09744
G1 X160.401 Y124.394 E6.12805
G1 X161.171 Y124.898 E6.15866
G1 X161.895 Y125.467 E6.18929
G1 X162.567 Y126.097 E6.21992
G1 X163.182 Y126.782 E6.25054
G1 X163.735 Y127.518 E6.28116
G1 X164.222 Y128.299 E6.31177
G1 X164.639 Y129.12 E6.3424
G1 X164.984 Y129.974 E6.37303
G1 X165.253 Y130.854 E6.40364
G1 X165.445 Y131.755 E6.43428
G1 X165.558 Y132.668 E6.46488
G1 X165.587 Y133.212 E6.483
G1 X165.596 Y133.532 E6.49365
G1 X165.6 Y133.83 E6.50356
G1 X165.6 Y139.243 E6.6836
G1 X165.637 Y141.868 E6.77091
G1 X165.744 Y144.376 E6.8544
G1 X165.922 Y146.896 E6.93843
G1 X166.171 Y149.411 E7.02249
G1 X166.49 Y151.9 E7.10595
G1 X166.891 Y154.452 E7.19187
G1 X167.342 Y156.878 E7.27394
G1 X167.769 Y158.857 E7.34128
G1 X167.796 Y158.989 E7.34576
G1 X167.879 Y159.399 E7.35967
G1 X168.023 Y160.308 E7.39028
G1 X168.085 Y161.179 E7.41933
G1 X168.095 Y161.507 E7.43024
G1 X168.1 Y161.83 E7.44098
G1 X168.1 Y165.764 E7.57183
G1 X168.099 Y165.895 E7.57619
G1 X168.09 Y166.622 E7.60037
G1 X168.039 Y167.541 E7.63098
G1 X167.908 Y168.453 E7.66163
G1 X167.698 Y169.349 E7.69224
G1 X167.412 Y170.224 E7.72285
G1 X167.051 Y171.071 E7.75348
G1 X166.617 Y171.883 E7.7841
G1 X166.115 Y172.655 E7.81473
G1 X165.547 Y173.38 E7.84536
G1 X164.919 Y174.053 E7.87598
G1 X164.235 Y174.669 E7.90659
G1 X163.5 Y175.223 E7.9372
G1 X162.72 Y175.712 E7.96782
G1 X161.9 Y176.131 E7.99845
G1 X161.047 Y176.477 E8.02907
G1 X160.167 Y176.748 E8.05969
G1 X159.267 Y176.941 E8.09031
G1 X158.353 Y177.056 E8.12095
G1 X157.788 Y177.087 E8.13977
G1 X157.467 Y177.096 E8.15045
G1 X157.17 Y177.1 E8.16033
G1 X143.207 Y177.1 E8.62474
G1 X143.07 Y177.099 E8.6293
G1 X142.372 Y177.09 E8.65251
G1 X141.453 Y177.038 E8.68313
G1 X140.542 Y176.907 E8.71374
G1 X139.646 Y176.697 E8.74435
G1 X138.771 Y176.41 E8.77498
G1 X137.924 Y176.048 E8.80561
G1 X137.112 Y175.614 E8.83624
G1 X136.341 Y175.112 E8.86684
G1 X135.616 Y174.544 E8.89747
G1 X134.943 Y173.915 E8.92811
G1 X134.328 Y173.231 E8.9587
G1 X133.774 Y172.496 E8.98931
G1 X133.286 Y171.715 E9.01994
G1 X132.867 Y170.895 E9.05057
G1 X132.521 Y170.042 E9.08119
G1 X132.251 Y169.162 E9.1118
G1 X132.058 Y168.261 E9.14245
G1 X131.944 Y167.348 E9.17305
G1 X131.913 Y166.777 E9.19207
G1 X131.904 Y166.444 E9.20315
G1 X131.9 Y166.158 E9.21266
G1 X131.9 Y162.207 E9.34407
G1 X131.901 Y162.055 E9.34913
G1 X131.911 Y161.358 E9.37232
G1 X131.964 Y160.439 E9.40293
G1 X132.145 Y159.291 E9.44159
G1 X132.382 Y158.183 E9.47927
G1 X132.895 Y155.624 E9.56608
G1 X133.318 Y153.154 E9.64943
G1 X133.682 Y150.595 E9.7354
G1 X133.962 Y148.127 E9.81801
G1 X134.176 Y145.595 E9.90252
G1 X134.317 Y143.118 E9.98504
G1 X134.4 Y139.165 E10.11655
G1 X134.4 Y134.174 E10.28255
G1 X134.401 Y134.015 E10.28784
G1 X134.411 Y133.35 E10.30996
G1 X134.465 Y132.431 E10.34058
G1 X134.598 Y131.52 E10.3712
G1 X134.81 Y130.624 E10.40182
G1 X135.099 Y129.749 E10.43247
G1 X135.463 Y128.904 E10.46307
G1 X135.898 Y128.093 E10.49368
G1 X136.403 Y127.322 E10.52434
G1 X136.972 Y126.599 E10.55494
G1 X137.602 Y125.927 E10.58558
G0 F6000 X137.993 Y126.106
G1 F1200 X138.675 Y125.514 E10.61561
G1 X139.407 Y124.985 E10.64565
G1 X140.183 Y124.523 E10.67569
G1 X140.997 Y124.132 E10.70572
G1 X141.842 Y123.813 E10.73576
G1 X142.712 Y123.571 E10.7658
G1 X143.6 Y123.407 E10.79583
G1 X144.723 Y123.313 E10.83332
G1 X145.043 Y123.304 E10.84396
G1 X145.33 Y123.3 E10.85351
G1 X154.293 Y123.3 E11.15162
G1 X154.439 Y123.301 E11.15648
G1 X155.137 Y123.311 E11.17969
G1 X156.039 Y123.364 E11.20975
G1 X156.932 Y123.496 E11.23977
G1 X157.81 Y123.707 E11.2698
G1 X158.666 Y123.995 E11.29984
G1 X159.493 Y124.357 E11.32987
G1 X160.285 Y124.792 E11.35992
G1 X161.036 Y125.294 E11.38997
G1 X161.739 Y125.861 E11.42001
G1 X162.389 Y126.488 E11.45005
G1 X162.981 Y127.17 E11.48008
G1 X163.511 Y127.901 E11.51011
G1 X163.973 Y128.677 E11.54015
G1 X164.366 Y129.49 E11.57019
G1 X164.684 Y130.335 E11.60021
G1 X164.927 Y131.205 E11.63026
G1 X165.092 Y132.093 E11.6603
G1 X165.187 Y133.223 E11.69802
G1 X165.196 Y133.543 E11.70866
G1 X165.2 Y133.83 E11.71821
G1 X165.2 Y139.249 E11.89845
G1 X165.237 Y141.855 E11.98513
G1 X165.346 Y144.42 E12.07052
G1 X165.524 Y146.927 E12.15411
G1 X165.775 Y149.468 E12.23904
G1 X166.096 Y151.972 E12.323
G1 X166.49 Y154.481 E12.40748
G1 X166.951 Y156.963 E12.49144
G1 X167.378 Y158.941 E12.55874
G1 X167.404 Y159.068 E12.56306
G1 X167.487 Y159.478 E12.57697
G1 X167.627 Y160.37 E12.607
G1 X167.685 Y161.191 E12.63437
G1 X167.695 Y161.519 E12.64529
G1 X167.7 Y161.83 E12.65563
G1 X167.7 Y165.764 E12.78648
G1 X167.699 Y165.89 E12.79067
G1 X167.69 Y166.617 E12.81485
G1 X167.639 Y167.519 E12.8449
G1 X167.508 Y168.413 E12.87495
G1 X167.299 Y169.291 E12.90497
G1 X167.013 Y170.148 E12.93502
G1 X166.652 Y170.976 E12.96506
G1 X166.22 Y171.768 E12.99507
G1 X165.719 Y172.52 E13.02512
G1 X165.153 Y173.224 E13.05517
G1 X164.528 Y173.875 E13.08518
G1 X163.847 Y174.469 E13.11524
G1 X163.116 Y175 E13.14529
G1 X162.342 Y175.464 E13.1753
G1 X161.529 Y175.858 E13.20535
G1 X160.685 Y176.178 E13.23537
G1 X159.815 Y176.423 E13.26544
G1 X158.928 Y176.589 E13.29545
G1 X157.777 Y176.687 E13.33387
G1 X157.456 Y176.696 E13.34455
G1 X157.17 Y176.7 E13.35407
G1 X143.207 Y176.7 E13.81848
G1 X143.075 Y176.699 E13.82287
G1 X142.377 Y176.69 E13.84608
G1 X141.476 Y176.639 E13.8761
G1 X140.582 Y176.507 E13.90616
G1 X139.704 Y176.298 E13.93618
G1 X138.847 Y176.011 E13.96624
G1 X138.02 Y175.65 E13.99625
G1 X137.227 Y175.217 E14.0263
G1 X136.476 Y174.716 E14.05633
G1 X135.772 Y174.15 E14.08637
G1 X135.121 Y173.524 E14.11641
G1 X134.528 Y172.843 E14.14644
G1 X133.998 Y172.112 E14.17647
G1 X133.534 Y171.337 E14.20652
G1 X133.14 Y170.524 E14.23657
G1 X132.82 Y169.68 E14.26659
G1 X132.576 Y168.81 E14.29664
G1 X132.41 Y167.922 E14.32669
G1 X132.313 Y166.767 E14.36524
G1 X132.304 Y166.434 E14.37632
G1 X132.3 Y166.158 E14.3855
G1 X132.3 Y162.207 E14.51691
G1 X132.301 Y162.061 E14.52176
G1 X132.311 Y161.364 E14.54495
G1 X132.364 Y160.462 E14.575
G1 X132.536 Y159.375 E14.6116
G1 X132.773 Y158.267 E14.64929
G1 X133.288 Y155.699 E14.7364
G1 X133.72 Y153.173 E14.82164
G1 X134.072 Y150.7 E14.90472
G1 X134.363 Y148.135 E14.99058
G1 X134.573 Y145.653 E15.07343
G1 X134.717 Y143.12 E15.15781
G1 X134.8 Y139.173 E15.28912
G1 X134.8 Y134.174 E15.45538
G1 X134.801 Y134.021 E15.46047
G1 X134.811 Y133.356 E15.48259
G1 X134.865 Y132.454 E15.51265
G1 X134.998 Y131.561 E15.54268
G1 X135.209 Y130.683 E15.57271
G1 X135.498 Y129.827 E15.60276
G1 X135.861 Y129 E15.6328
G1 X136.295 Y128.209 E15.66281
G1 X136.798 Y127.458 E15.69287
G1 X137.366 Y126.756 E15.72291
G1 X137.993 Y126.106 E15.75294
G1 F1500 E9.25294
;MESH:Spare-Body.stl
G0 F6000 X145.414 Y132.835
G0 X145.414 Y133.914
G0 X153.818 Y134.682
G0 X153.794 Y137.141
G0 X151.135 Y134.768
G0 X146.761 Y135.941
G0 X147.142 Y138.222
G0 X147.263 Y138.456
G0 X148.384 Y140.004
;TYPE:WALL-INNER
G1 F1500 E15.75294
G1 F1200 X148.944 Y140.077 E15.77173
G1 X151.098 Y140.08 E15.84337
G1 X151.636 Y140.018 E15.86138
G1 X152.217 Y139.801 E15.88201
G1 X152.749 Y139.442 E15.90336
G1 X153.149 Y138.988 E15.92348
G1 X153.441 Y138.447 E15.94393
G1 X153.602 Y137.827 E15.96523
G1 X153.602 Y137.825 E15.9653
G1 X153.602 Y137.22 E15.98542
G1 X153.602 Y137.217 E15.98552
G1 X153.461 Y136.619 E16.00596
G1 X153.167 Y136.047 E16.02735
G1 X152.767 Y135.593 E16.04747
G1 X152.26 Y135.238 E16.06806
G1 X151.682 Y135.013 E16.08869
G1 X151.123 Y134.939 E16.10744
G1 X148.967 Y134.936 E16.17915
G1 X148.43 Y134.999 E16.19713
G1 X147.831 Y135.221 E16.21838
G1 X147.33 Y135.564 E16.23858
G1 X146.903 Y136.04 E16.25984
G1 X146.613 Y136.594 E16.28064
G1 X146.464 Y137.197 E16.3013
G1 X146.464 Y137.82 E16.32202
G1 X146.613 Y138.423 E16.34268
G1 X146.891 Y138.955 E16.36265
G1 X147.312 Y139.437 E16.38393
G1 X147.809 Y139.78 E16.40402
G1 X148.384 Y140.004 E16.42454
G0 F6000 X148.484 Y139.614
G1 F1200 X148.97 Y139.677 E16.44084
G1 X151.075 Y139.68 E16.51085
G1 X151.542 Y139.626 E16.52649
G1 X152.033 Y139.443 E16.54392
G1 X152.483 Y139.139 E16.56198
G1 X152.819 Y138.758 E16.57888
G1 X153.066 Y138.3 E16.59618
G1 X153.202 Y137.774 E16.61425
G1 X153.202 Y137.266 E16.63115
G1 X153.083 Y136.758 E16.6485
G1 X152.834 Y136.274 E16.66661
G1 X152.498 Y135.893 E16.6835
G1 X152.07 Y135.593 E16.70089
G1 X151.582 Y135.403 E16.7183
G1 X151.096 Y135.339 E16.73461
G1 X148.99 Y135.336 E16.80465
G1 X148.524 Y135.391 E16.82026
G1 X148.016 Y135.579 E16.83828
G1 X147.596 Y135.867 E16.85521
G1 X147.234 Y136.27 E16.87323
G1 X146.99 Y136.737 E16.89076
G1 X146.864 Y137.246 E16.9082
G1 X146.864 Y137.771 E16.92566
G1 X146.99 Y138.28 E16.9431
G1 X147.224 Y138.728 E16.95991
G1 X147.58 Y139.136 E16.97792
G1 X147.998 Y139.424 E16.9948
G1 X148.484 Y139.614 E17.01216
G0 F6000 X148.584 Y139.224
;TYPE:WALL-OUTER
G1 F1200 X148.996 Y139.277 E17.02597
G1 X151.052 Y139.28 E17.09436
G1 X151.448 Y139.234 E17.10762
G1 X151.849 Y139.085 E17.12185
G1 X152.217 Y138.836 E17.13662
G1 X152.489 Y138.528 E17.15029
G1 X152.691 Y138.153 E17.16446
G1 X152.802 Y137.723 E17.17923
G1 X152.802 Y137.312 E17.1929
G1 X152.705 Y136.897 E17.20707
G1 X152.501 Y136.501 E17.22189
G1 X152.229 Y136.193 E17.23556
G1 X151.88 Y135.948 E17.24974
G1 X151.482 Y135.793 E17.26394
G1 X151.07 Y135.739 E17.27776
G1 X149.013 Y135.736 E17.34618
G1 X148.618 Y135.783 E17.35941
G1 X148.201 Y135.937 E17.3742
G1 X147.862 Y136.17 E17.38788
G1 X147.565 Y136.5 E17.40264
G1 X147.367 Y136.88 E17.4169
G1 X147.264 Y137.295 E17.43112
G1 X147.264 Y137.722 E17.44532
G1 X147.367 Y138.137 E17.45954
G1 X147.557 Y138.501 E17.4732
G1 X147.848 Y138.835 E17.48793
G1 X148.187 Y139.068 E17.50161
G1 X148.584 Y139.224 E17.5158
G0 F6000 X148.475 Y139.65
G1 F1500 E11.0158
G0 F6000 X148.93 Y140.287
G0 X149.051 Y138.413
G0 X149.725 Y154.12
G0 X149.512 Y152.264
G0 X148.164 Y153.762
G0 X147.841 Y154.217
G0 X147.641 Y154.735
G0 X147.571 Y155.262
G0 X147.568 Y157.668
G0 X147.629 Y158.173
G0 X147.828 Y158.714
G0 X148.134 Y159.156
G0 X148.466 Y159.456
G0 X150.191 Y160.496
;TYPE:WALL-INNER
G1 F1500 E17.5158
G1 F1200 X150.889 Y160.333 E17.53964
G1 X151.485 Y160.02 E17.56203
G1 X152.006 Y159.568 E17.58497
G1 X152.403 Y159.001 E17.60799
G1 X152.655 Y158.357 E17.631
G1 X152.738 Y157.726 E17.65216
G1 X152.741 Y155.249 E17.73455
G1 X152.665 Y154.622 E17.75556
G1 X152.427 Y153.996 E17.77783
G1 X152.043 Y153.427 E17.80066
G1 X151.529 Y152.962 E17.82372
G1 X150.898 Y152.623 E17.84754
G1 X150.244 Y152.46 E17.86996
G1 X149.534 Y152.455 E17.89357
G1 X148.877 Y152.615 E17.91606
G1 X148.266 Y152.928 E17.9389
G1 X147.744 Y153.383 E17.96193
G1 X147.344 Y153.948 E17.98495
G1 X147.094 Y154.594 E18.00799
G1 X147.01 Y155.223 E18.0291
G1 X147.007 Y157.702 E18.11155
G1 X147.081 Y158.305 E18.13176
G1 X147.326 Y158.975 E18.15548
G1 X147.71 Y159.529 E18.1779
G1 X148.22 Y159.989 E18.20075
G1 X148.828 Y160.317 E18.22372
G1 X149.452 Y160.476 E18.24514
G1 X149.5 Y160.489 E18.24679
G1 X150.191 Y160.496 E18.26978
